X:1
T:Title
%%score { 1 | 2 }
L:1/8
M:4/4
K:G
V:1 treble nm="Grand Piano"
V:2 bass 
V:1
 z4 z[Q:1/4=100] DGA | B3 B BB c>B | B2 A2- ADFG | A3 A AA B>A | [B,G]4- [B,G]DGB | d3 d dd e>d | %6
 [Gd]2 [Fc]2- [Fc][Fc][FB][FA] | [Gd]3 [Ec] BA G>F |[M:5/8] [B,DG]-[B,DG]- [B,DG]3 |[M:3/8] DGB | %10
[M:4/4] d3 d dB e>d | [Gd]2 [Fc]2- [Fc]DF[FA] | [Fc]3 [Fc] [Fc][FA] [Fd]>[Fc] | B4- B[GB][FB][EB] | %14
 [^DB]3 [DB] [Dc][DB] [DB]>[EA] | [EA]2 [EG]2- [EG][Ec][EB][EA] | [Gd]3 [Ec] BA G>F | %17
[M:5/8] [B,DG]-[B,DG]- [B,DG]3 |] %18
V:2
 z4 z [G,B,][G,B,][G,C] | [G,D]3 [G,D] [G,D][G,D] [G,E]>[G,D] | %2
 [D,G,D]2 [D,F,C]2- [D,F,C][D,F,C][D,A,C][D,G,B,] | [D,F,D]3 [D,F,D] [D,F,D][D,F,D] [D,G,D]>[D,C] | %4
 [G,,D,]4- [G,,D,][G,B,][K:treble][G,B,D][G,DG] | [G,B,G]3 [G,B,G] [G,B,G][G,B,G] [G,CG]>[G,B,G] | %6
 [D,B,]2 [D,A,]2- [D,A,][D,A,][D,A,][C,A,] | [B,,G,]3 [C,G,] [D,G,D][D,CD] [D,B,D]>[D,A,D] | %8
[M:5/8] [G,,G,]-[G,,G,]- [G,,G,]3 |[M:3/8] [G,B,][K:treble][G,B,D][G,DG] | %10
[M:4/4] [G,B,G]3 [G,B,G] [G,B,G][G,DG] [G,CG]>[G,B,G] | [D,B,]2 [D,A,]2- [D,A,][D,F,][D,A,D][D,C] | %12
 [D,A,]3 [D,A,] [D,A,][D,A,] [D,A,]>[D,A,] | [G,G]4- [G,G][K:bass][E,B,][E,A,][E,G,] | %14
 [B,,F,]3 [B,,F,] [B,,F,][B,,F,] [B,,F,]>[B,,F,] | [C,E,]2 [C,G,]2- [C,G,][C,G,][C,G,][C,G,] | %16
 [B,,G,]3 [C,G,] [D,G,D][D,CD] [D,B,D]>[D,A,D] |[M:5/8] [G,,G,]-[G,,G,]- [G,,G,]3 |] %18

